dist/svgs/unicons/line/clipboard-blank.svg

<svg xmlns="http://www.w3.org/2000/svg" viewBox="0 0 24 24"><path d="M17 4h-1a2 2 0 00-2-2h-4a2 2 0 00-2 2H7a3 3 0 00-3 3v12a3 3 0 003 3h10a3 3 0 003-3V7a3 3 0 00-3-3zm-7 0h4v2h-4V4zm8 15a1 1 0 01-1 1H7a1 1 0 01-1-1V7a1 1 0 011-1h1a2 2 0 002 2h4a2 2 0 002-2h1a1 1 0 011 1z"/></svg>

<svg xmlns="http://www.w3.org/2000/svg" viewBox="0 0 24 24"><path d="M17,4H16a2,2,0,0,0-2-2H10A2,2,0,0,0,8,4H7A3,3,0,0,0,4,7V19a3,3,0,0,0,3,3H17a3,3,0,0,0,3-3V7A3,3,0,0,0,17,4ZM10,4h4V5h0V6H10V4Zm8,15a1,1,0,0,1-1,1H7a1,1,0,0,1-1-1V7A1,1,0,0,1,7,6H8a2,2,0,0,0,2,2h4a2,2,0,0,0,2-2h1a1,1,0,0,1,1,1Z"/></svg>
